!!!!SEGMENT:39Dontappo_c.krn
!!!OTL: ドンタッポ
!!!OPR:Eiga Banso Kyokusyu,jidai-geki,zenpen
!!!YOY:1929
!!!ONB:Kakutou,Tsuiseki
**kern
*clefG2
*C:
*M2/4
=1
!LO:TX:a:B:t=Allegro
16f#LL
16f#
16f#
16dJJ
8c#L
16eL
16f#JJ
=2
16BLL
16g
16g
16gJJ
16gLL
16f#JJ
8r
=3
8f#L
16g#XL
16g#JJ
16f#LL
16g#
16f#
16g#JJ
=4
16c#LL
16a
16a
16aJJ
16aLL
16g#XJJ
8r
=5
8bL
16cc#L
16cc#JJ
16bLL
16cc#
16b
16cc#JJ
=6
16f#LL
16dd
16dd
16ddJJ
16ddLL
16cc#
16dd
16ddJJ
=7
16ddLL
16cc#
16cc#
16bJJ
16cc#LL
16ff#
16dd
16ddJJ
=8
16ddLL
16cc#
16cc#
16bJJ
8cc#L
8cc#J
=9
*M2/8
8cc#
8r
=10||
*M2/4
16c#LL
16f#
16f#
16f#JJ
16f#LL
16f#
16f#
16f#JJ
=11
16c#LL
16f#
16f#
16f#JJ
16f#LL
16f#
16f#
16f#JJ
=12
8gL
8f#J
8eL
8f#J
=13
16bLL
16gJ
8f#J
8c#
8r
==
*-
!!!ENC: Yukiko Yoden
!!!END: 2023/06/11
